assets/img/phone.svg

<svg enable-background="new 0 0 512 512" height="512" viewBox="0 0 387.2 387.2" width="512" xmlns="http://www.w3.org/2000/svg"><path d="m304.8 10.84v-.04c-6.873-6.909-16.215-10.796-25.96-10.8h-170.52c-20.253.066-36.654 16.467-36.72 36.72v313.72c.004 9.745 3.891 19.087 10.8 25.96 6.863 6.899 16.189 10.785 25.92 10.8h170.56c9.731-.015 19.057-3.901 25.92-10.8 6.899-6.863 10.785-16.189 10.8-25.92v-313.72c-.015-9.731-3.901-19.057-10.8-25.92zm-111.2 351.44c-5.479 0-9.92-4.441-9.92-9.92s4.441-9.92 9.92-9.92 9.92 4.441 9.92 9.92-4.441 9.92-9.92 9.92zm92.84-62.28c0 13.255-10.745 24-24 24h-137.72c-13.255 0-24-10.745-24-24v-233.8c0-13.255 10.745-24 24-24h137.76c13.255 0 24 10.745 24 24z" fill="#dc3545" xmlns="http://www.w3.org/2000/svg"/></svg>

<?xml version="1.0"?>
<svg xmlns="http://www.w3.org/2000/svg" xmlns:xlink="http://www.w3.org/1999/xlink" xmlns:svgjs="http://svgjs.com/svgjs" version="1.1" width="512" height="512" x="0" y="0" viewBox="0 0 387.2 387.2" style="enable-background:new 0 0 512 512" xml:space="preserve" class=""><g>
<g xmlns="http://www.w3.org/2000/svg">
	<g>
		<path d="M304.8,10.84l0-0.04C297.927,3.891,288.585,0.004,278.84,0H108.32C88.067,0.066,71.666,16.467,71.6,36.72v313.72    c0.004,9.745,3.891,19.087,10.8,25.96c6.863,6.899,16.189,10.785,25.92,10.8h170.56c9.731-0.015,19.057-3.901,25.92-10.8    c6.899-6.863,10.785-16.189,10.8-25.92V36.76C315.585,27.029,311.699,17.703,304.8,10.84z M193.6,362.28L193.6,362.28    c-5.479,0-9.92-4.441-9.92-9.92c0-5.479,4.441-9.92,9.92-9.92c5.479,0,9.92,4.441,9.92,9.92    C203.52,357.839,199.079,362.28,193.6,362.28z M286.44,300c0,13.255-10.745,24-24,24H124.72c-13.255,0-24-10.745-24-24V66.2    c0-13.255,10.745-24,24-24h137.76c13.255,0,24,10.745,24,24L286.44,300z" fill="#dc3545" data-original="#000000" style="" class=""/>
	</g>
</g>
<g xmlns="http://www.w3.org/2000/svg">
</g>
<g xmlns="http://www.w3.org/2000/svg">
</g>
<g xmlns="http://www.w3.org/2000/svg">
</g>
<g xmlns="http://www.w3.org/2000/svg">
</g>
<g xmlns="http://www.w3.org/2000/svg">
</g>
<g xmlns="http://www.w3.org/2000/svg">
</g>
<g xmlns="http://www.w3.org/2000/svg">
</g>
<g xmlns="http://www.w3.org/2000/svg">
</g>
<g xmlns="http://www.w3.org/2000/svg">
</g>
<g xmlns="http://www.w3.org/2000/svg">
</g>
<g xmlns="http://www.w3.org/2000/svg">
</g>
<g xmlns="http://www.w3.org/2000/svg">
</g>
<g xmlns="http://www.w3.org/2000/svg">
</g>
<g xmlns="http://www.w3.org/2000/svg">
</g>
<g xmlns="http://www.w3.org/2000/svg">
</g>
</g></svg>
